ui/StatusQ/src/assets/img/icons/homepage/chat.svg

<svg fill="none" height="24" viewBox="0 0 24 24" width="24" xmlns="http://www.w3.org/2000/svg"><path clip-rule="evenodd" d="m1.80005 10.1c0-4.58392 3.71604-8.29995 8.30005-8.29995h3.342c4.8369 0 8.758 3.92107 8.758 8.75795 0 3.1035-1.6425 5.9752-4.3175 7.5488l-6.7943 3.9966-1.0549.6205v-1.2239-3.1002c-4.55329-.0358-8.23335-3.738-8.23335-8.2998zm8.30005-6.89995c-3.81082 0-6.90005 3.08923-6.90005 6.89995 0 3.8108 3.08923 6.9 6.89995 6.9h.6334.7v.7 2.5762l5.7393-3.3761c2.2474-1.322 3.6273-3.7347 3.6273-6.3421 0-4.06368-3.2942-7.35795-7.3579-7.35795z" fill="#09101c" fill-rule="evenodd"/></svg>

<svg width="24" height="24" viewBox="0 0 24 24" fill="none" xmlns="http://www.w3.org/2000/svg">
<g id="24/messages">
<path id="body" fill-rule="evenodd" clip-rule="evenodd" d="M1.80005 10.1C1.80005 5.51608 5.51609 1.80005 10.1001 1.80005H13.4421C18.279 1.80005 22.2001 5.72112 22.2001 10.558C22.2001 13.6615 20.5576 16.5332 17.8826 18.1068L11.0883 22.1034L10.0334 22.7239V21.5V18.3998C5.48011 18.364 1.80005 14.6618 1.80005 10.1ZM10.1001 3.20005C6.28928 3.20005 3.20005 6.28928 3.20005 10.1C3.20005 13.9108 6.28928 17 10.1 17H10.7334H11.4334V17.7V20.2762L17.1727 16.9001C19.4201 15.5781 20.8 13.1654 20.8 10.558C20.8 6.49432 17.5058 3.20005 13.4421 3.20005H10.1001Z" fill="#09101C"/>
</g>
</svg>
